public/Img/About/values__discount.svg

<svg width="48" height="48" viewBox="0 0 48 48" fill="none" xmlns="http://www.w3.org/2000/svg">
<path d="M18.6602 18.1601C18.6602 17.884 18.4363 17.6601 18.1602 17.6601C17.8884 17.6704 17.6704 17.8883 17.6602 18.1601C17.6602 18.7201 18.6602 18.7201 18.6602 18.1601Z" fill="#6B7CFF"/>
<path d="M29.8398 29.34C29.5637 29.34 29.3398 29.5638 29.3398 29.84C29.3398 30.38 30.3398 30.38 30.3398 29.84C30.3398 29.5638 30.116 29.34 29.8398 29.34Z" fill="#6B7CFF"/>
<path fill-rule="evenodd" clip-rule="evenodd" d="M41.1601 16.8001C41.5522 17.5412 42.0583 18.2161 42.6601 18.8001C44.215 20.1162 45.2093 21.976 45.4401 24.0001C45.2111 25.9739 44.2558 27.7919 42.7601 29.1001C42.1583 29.684 41.6522 30.3589 41.2601 31.1001C41.0113 31.9296 40.9031 32.7948 40.9401 33.6601C41.1072 35.6411 40.5056 37.6105 39.2601 39.1601C37.7105 40.4056 35.7411 41.0072 33.7601 40.8401C32.8948 40.8031 32.0296 40.9113 31.2001 41.1601C30.4623 41.5575 29.7882 42.0631 29.2001 42.6601C27.8932 44.2264 26.0285 45.2233 24.0001 45.4401C22.0221 45.2244 20.1996 44.2667 18.9001 42.7601C18.3119 42.1631 17.6378 41.6575 16.9001 41.2601C16.0706 41.0113 15.2053 40.9031 14.3401 40.9401C12.359 41.1072 10.3896 40.5056 8.84006 39.2601C7.59448 37.7105 6.99291 35.7411 7.16006 33.7601C7.19698 32.8948 7.08882 32.0296 6.84006 31.2001C6.44796 30.4589 5.94178 29.784 5.34006 29.2001C3.78511 27.8839 2.79084 26.0241 2.56006 24.0001C2.78901 22.0262 3.74435 20.2082 5.24006 18.9001C5.84178 18.3161 6.34796 17.6412 6.74006 16.9001C6.98882 16.0706 7.09698 15.2053 7.06006 14.3401C6.89291 12.359 7.49448 10.3896 8.74006 8.84006C10.2896 7.59448 12.259 6.99291 14.2401 7.16006C15.1053 7.19698 15.9706 7.08882 16.8001 6.84006C17.5378 6.44262 18.2119 5.93702 18.8001 5.34006C20.107 3.77371 21.9716 2.77682 24.0001 2.56006C25.978 2.7757 27.8005 3.73343 29.1001 5.24006C29.6882 5.83702 30.3623 6.34262 31.1001 6.74006C31.9296 6.98882 32.7948 7.09698 33.6601 7.06006C35.6411 6.89291 37.6105 7.49448 39.1601 8.74006C40.4056 10.2896 41.0072 12.259 40.8401 14.2401C40.8031 15.1053 40.9113 15.9706 41.1601 16.8001ZM18.1601 13.6601C15.6748 13.6601 13.6601 15.6748 13.6601 18.1601C13.6601 20.6453 15.6748 22.6601 18.1601 22.6601C20.6453 22.6601 22.6601 20.6453 22.6601 18.1601C22.6601 15.6748 20.6453 13.6601 18.1601 13.6601ZM18.7401 32.1601C18.3675 32.5295 17.8647 32.7379 17.3401 32.7401C16.8129 32.6809 16.3309 32.4147 16.0001 32.0001C15.2246 31.22 15.2246 29.9601 16.0001 29.1801L29.2601 16.0001C29.6857 15.2813 30.5133 14.9028 31.3355 15.0509C32.1576 15.199 32.8011 15.8425 32.9492 16.6646C33.0973 17.4868 32.7188 18.3144 32.0001 18.7401L18.7401 32.1601ZM25.3401 29.9201C25.3401 32.4053 27.3548 34.4201 29.8401 34.4201V34.3401C32.2944 34.3404 34.2964 32.374 34.3401 29.9201C34.3401 27.4348 32.3253 25.4201 29.8401 25.4201C27.3548 25.4201 25.3401 27.4348 25.3401 29.9201Z" fill="#6B7CFF"/>
</svg>

<svg width="48" height="48" fill="none" xmlns="http://www.w3.org/2000/svg"><path d="M18.66 18.16a.5.5 0 0 0-.5-.5.52.52 0 0 0-.5.5c0 .56 1 .56 1 0ZM29.84 29.34a.5.5 0 0 0-.5.5c0 .54 1 .54 1 0a.5.5 0 0 0-.5-.5Z" fill="#6B7CFF"/><path fill-rule="evenodd" clip-rule="evenodd" d="M41.16 16.8a8 8 0 0 0 1.5 2 8 8 0 0 1 2.78 5.2 8 8 0 0 1-2.68 5.1 7.997 7.997 0 0 0-1.5 2 7.757 7.757 0 0 0-.32 2.56 7.74 7.74 0 0 1-1.68 5.5 7.74 7.74 0 0 1-5.5 1.68 7.757 7.757 0 0 0-2.56.32 8.397 8.397 0 0 0-2 1.5 7.86 7.86 0 0 1-5.2 2.78 7.86 7.86 0 0 1-5.1-2.68 8.4 8.4 0 0 0-2-1.5 7.757 7.757 0 0 0-2.56-.32 7.74 7.74 0 0 1-5.5-1.68 7.74 7.74 0 0 1-1.68-5.5 7.76 7.76 0 0 0-.32-2.56 7.998 7.998 0 0 0-1.5-2A8 8 0 0 1 2.56 24a8 8 0 0 1 2.68-5.1 8.002 8.002 0 0 0 1.5-2 7.76 7.76 0 0 0 .32-2.56 7.74 7.74 0 0 1 1.68-5.5 7.74 7.74 0 0 1 5.5-1.68 7.76 7.76 0 0 0 2.56-.32 8.403 8.403 0 0 0 2-1.5A7.86 7.86 0 0 1 24 2.56a7.86 7.86 0 0 1 5.1 2.68 8.399 8.399 0 0 0 2 1.5 7.76 7.76 0 0 0 2.56.32 7.74 7.74 0 0 1 5.5 1.68 7.74 7.74 0 0 1 1.68 5.5c-.037.865.071 1.73.32 2.56Zm-23-3.14a4.5 4.5 0 1 0 0 9 4.5 4.5 0 0 0 0-9Zm.58 18.5a2 2 0 0 1-1.4.58A2 2 0 0 1 16 32a2 2 0 0 1 0-2.82L29.26 16A2 2 0 1 1 32 18.74L18.74 32.16Zm6.6-2.24a4.5 4.5 0 0 0 4.5 4.5v-.08a4.5 4.5 0 0 0 4.5-4.42 4.5 4.5 0 0 0-9 0Z" fill="#6B7CFF"/></svg>
